svgs/solid/dagger.svg

<svg xmlns="http://www.w3.org/2000/svg" viewBox="0 0 384 512"><path d="M336 128H224V16c0-8.84-7.16-16-16-16h-32c-8.84 0-16 7.16-16 16v112H48c-26.51 0-48 21.49-48 48s21.49 48 48 48c20.87 0 38.45-13.4 45.06-32h197.88c6.61 18.6 24.19 32 45.06 32 26.51 0 48-21.49 48-48s-21.49-48-48-48zM128 428.84l50.69 76.03c6.33 9.5 20.29 9.5 26.63 0L256 428.84V224H128v204.84z"/></svg>

<svg xmlns="http://www.w3.org/2000/svg" viewBox="0 0 384 512"><!--! Font Awesome Pro 6.0.0-alpha3 by @fontawesome - https://fontawesome.com License - https://fontawesome.com/license (Commercial License) --><path d="M336 128H224V16C224 7.125 216.9 0 208 0h-32C167.1 0 160 7.125 160 16V128H48C21.5 128 0 149.5 0 176S21.5 224 48 224c20.88 0 38.5-13.38 45-32h198C297.5 210.6 315.1 224 336 224C362.5 224 384 202.5 384 176S362.5 128 336 128zM128 428.9l50.73 76c6.25 9.5 20.25 9.5 26.62 0L256 428.9V224H128V428.9z"/></svg>
